X: 10922
M: C|
L: 1/8
K: D
uA, |\
(3A,DF (3AFD (3CEG (3BGE | (3ABd (3efg f<d d |]
uf |\
(A<d) (.f>.d) (.a>.d)(.f>.d) | (.g>.f)(.e>.d) c<(e"^>"e<f) |\
(A<d)(.f>.d) (.a>.d)(.f>.d) | (3gfe (3Bge f<(d"^>"d<f) |
(A<d)(.f>.d) (.a>.d)(.f>.d) | (.g>.f)(.e>.d) (3ced (3cBA |\
(3BGB (3edc (3cAc (3agf & B<G e<d c<A a<f | (3gfe (3Bge "_Segue Reel."f<d d |]


